!!!!SEGMENT: pl-kk--kk-i-70--002-004_anonim-missa-6ta-agnus-dei.krn
!!!id: 17xx:2300
!!!COM: Anonim
!!!OTL: Missa 6ta – Agnus Dei
!!!PDT:
!!!SMS-siglum: PL-Kk
!!!SMS-shelfmark: Kk.I.70
!!!NIFC-rismID: 1001154792
!!!URL-scan: http://repozytorium.nifc.pl/skany/pl-kk-nut--i-70
!!!ONB-nifc: UWAGA: w zbiorze Msza 5ta i 6ta. Części Mszy: 1. Kyrie, 2. Et in terra, 3. Sanctus, 4. Agnus Dei
!!!SMS-variant: Baſso PL-Kk Kk.I.70:0020
!!!SMS-altvar: Baſso PL-Kk Kk.I.70:0025
**kern	**text	**kern	**text	**kern	**text	**kern	**text
*part4	*part4	*part3	*part3	*part2	*part2	*part1	*part1
*staff4	*staff4	*staff3	*staff3	*staff2	*staff2	*staff1	*staff1
*I"Baſso	*	*I"Tenore	*	*I"Alto.	*	*I"Canto	*
*I'B	*	*I'T	*	*I'A	*	*I'S	*
*clefF4	*	*clefC4	*	*clefC3	*	*clefC1	*
*k[]	*	*k[]	*	*k[]	*	*k[]	*
*M2/2	*	*M2/2	*	*M2/2	*	*M2/2	*
*met(c|)	*	*met(c|)	*	*met(c|)	*	*met(c|)	*
*2\right	*	*2\right	*	*2\right	*	*2\right	*
=1	=1	=1	=1	=1	=1	=1	=1
!	!	!	!	!LO:TX:a:t=Lente	!	!LO:TX:a:t=Lento	!
!LO:TX:a:t=Lente	!	!LO:TX:a:t=Lente	!	!	!	!	!
4AA/	A-	4c\	A-	2e\	A-	4ee\	A-
4C/	.	4A\	.	.	.	4cc\	.
4E\	.	4A\	.	4c\	.	4a\	.
4A\	-gnus	4c\	-gnus	4e\	-gnus	4a\	-gnus
=2	=2	=2	=2	=2	=2	=2	=2
8G#X\L	De-	8B\L	De-	4e\	De-	8g#X\L	De-
8F\J	.	8A\J	.	.	.	8a\J	.
4E\	-i	4G#X\	-i	4e\	-i	4b\	-i
4r	.	4r	.	4r	.	4r	.
8E\L	qui	8G#\L	qui	4e\	qui	8b\L	qui
8F#X\J	.	8A\J	.	.	.	8cc\J	.
=3	=3	=3	=3	=3	=3	=3	=3
8G#X\L	tol-	8B\L	tol-	4e\	tol-	8dd\L	tol-
8A\J	.	8c\J	.	.	.	8cc\J	.
8B\	-lis	8d\	-lis	8e\	-lis	8b\	-lis
8A\	pec-	8c\	pec-	8e\	pec-	8cc\	pec-
8G#\L	-ca-	8B\L	-ca-	4e\	-ca-	8dd\L	-ca-
8A\J	.	8c\J	.	.	.	8cc\J	.
8G#\L	-ta	8B\L	-ta	4e\	-ta	8dd\L	-ta
8A\J	.	8c\J	.	.	.	8cc\J	.
=4	=4	=4	=4	=4	=4	=4	=4
4E\	mun-	4A\	mun-	4e\	mun-	4cc\	mun-
4E\	-di	4G#X\	-di	4e\	-di	4b\	-di
2r	.	2r	.	2r	.	2r	.
=5	=5	=5	=5	=5	=5	=5	=5
!LO:LB:g=original	!	!LO:LB:g=original	!	!LO:LB:g=original	!	!LO:LB:g=original	!
4C\	A-	2G/	A-	4e\	A-	2cc\	A-
4E\	.	.	.	4c\	.	.	.
4G\	.	4c\	.	4e\	.	4ee\	.
4c\	-gnus	4e\	-gnus	4g\	-gnus	4cc\	-gnus
=6	=6	=6	=6	=6	=6	=6	=6
8B\L	De-	8d\L	De-	4g\	De-	8b\L	De-
8A\J	.	8c\J	.	.	.	8cc\J	.
4G\	-i	4B\	-i	4d\	-i	4dd\	-i
4r	.	4r	.	4r	.	4r	.
8G\L	qui	8B\L	qui	4g\	qui	4dd\	qui
8A\J	.	8c\J	.	.	.	.	.
=7	=7	=7	=7	=7	=7	=7	=7
8B\L	tol-	8d\L	tol-	4g\	tol-	8dd\L	tol-
8c\J	.	8e\J	.	.	.	8cc\J	.
8d\	-lis	8f\	-lis	8g\	-lis	8b\	-lis
8c\	pec-	8e\	pec-	8g\	pec-	8cc\	pec-
8B\L	-ca-	8d\L	-ca-	4g\	-ca-	8dd\L	-ca-
8A\J	.	8c\J	.	.	.	8cc\J	.
8G\L	-ta	8B\L	-ta	4g\	-ta	8b\L	-ta
8F\J	.	8A\J	.	.	.	8dd\J	.
=8	=8	=8	=8	=8	=8	=8	=8
8E\L	mun-	8G/L	mun-	8e\L	mun-	8cc\L	mun-
8D\J	.	8F/J	.	8f\J	.	8dd\J	.
4C\	-di	4E/	-di	4g\	-di	4ee\	-di
4C\	mi-	4E/	mi-	4g\	mi-	4cc\	mi-
4E\	-se-	4G/	-se-	4e\	-se-	4cc\	-se-
=9	=9	=9	=9	=9	=9	=9	=9
!	!	!LO:LB:g=original	!	!	!	!	!
4F\	-re-	4A/	-re-	4f\	-re-	4cc\	-re-
4F\	-re	4A/	-re	4f\	-re	4cc\	-re
4D\	mi-	4F#X/	mi-	4a\	mi-	4dd\	mi-
4F#X\	-se-	4A/	-se-	4f#X\	-se-	4dd\	-se-
=10	=10	=10	=10	=10	=10	=10	=10
!LO:LB:g=original	!	!	!	!LO:LB:g=original	!	!LO:LB:g=original	!
4G\	-re-	4B\	-re-	4g\	-re-	4dd\	-re-
4G\	-re	4B\	-re	4g\	-re	4dd\	-re
8G#X\L	mi-	8B\L	mi-	4e\	mi-	4dd\	mi-
8B\J	.	8d\J	.	.	.	.	.
8E\L	-se-	8G#X\L	-se-	4g#X\	-se-	8b\L	-se-
8G#\J	.	8B\J	.	.	.	8dd\J	.
=11	=11	=11	=11	=11	=11	=11	=11
4A\	-re-	4c\	-re-	4a\	-re-	4cc\	-re-
4F\	-re	4A\	-re	4f\	-re	4dd\	-re
4D\	no-	4B\	no-	4f\	no-	4dd\	no-
4E\	.	4G#X\	.	4e\	.	4b\	.
=12	=12	=12	=12	=12	=12	=12	=12
2AA/	-bis	2A\	-bis	2e\	-bis	2cc\	-bis
2r	.	2r	.	2r	.	2r	.
==13	==13	==13	==13	==13	==13	==13	==13
*M3/4	*	*M3/4	*	*M3/4	*	*M3/4	*
!LO:LB:g=original	!	!LO:LB:g=original	!	!LO:LB:g=original	!	!LO:LB:g=original	!
4AA/	A-	4A\	A-	2e\	A-	4a\	A-
4A\	.	4c\	.	.	.	4cc\	.
4G#X\	-gnus	4B\	-gnus	4e\	-gnus	4dd\	-gnus
=14	=14	=14	=14	=14	=14	=14	=14
!LO:SIC:v:s=4G#\	!	!	!	!	!	!	!
4G\	De-	4B\	De-	4e\	De-	4dd\	De-
4A\	-i	4c\	-i	4e\	-i	4cc\	-i
8r	.	8r	.	8r	.	8r	.
8A\	qui	8c\	qui	8e\	qui	8a\	qui
=15	=15	=15	=15	=15	=15	=15	=15
4E\	tol-	8c\L	tol-	4e\	tol-	4g#X\	tol-
.	.	8B\J	.	.	.	.	.
4E\	-lis	4B\	-lis	4e\	-lis	4g#\	-lis
8r	.	8r	.	8r	.	8r	.
8E\	qui	8B\	qui	8e\	qui	8g#\	qui
=16	=16	=16	=16	=16	=16	=16	=16
4A\	tol-	4c\	tol-	4e\	tol-	4a\	tol-
4A\	-lis	4c\	-lis	4e\	-lis	4a\	-lis
8r	.	8r	.	8r	.	8r	.
8A\	pec-	8c\	pec-	8e\	pec-	8a\	pec-
=17	=17	=17	=17	=17	=17	=17	=17
4A\	-ca-	4c\	-ca-	2e\	-ca-	4a\	-ca-
4G#X\	.	4B\	.	.	.	4dd\	.
4A\	-ta	4c\	-ta	4e\	-ta	4cc\	-ta
=18	=18	=18	=18	=18	=18	=18	=18
!	!	!LO:LB:g=original	!LO:LB:g=original	!	!	!	!
2.D#X\	mun-	2.c\	mun-	2.f\	mun-	2.a\	mun-
=19	=19	=19	=19	=19	=19	=19	=19
!LO:TX:a:t=Dona nobis ut Kyrie Allabreve	!	!LO:TX:a:t=Dona nobis ut Kyrie alla breve	!	!LO:TX:a:t=Dona nobis ut Kyrie alla breve	!	!LO:TX:a:t=Dona nobis ut Kyrie alla breve	!
!	!	!LO:LB:g=original	!	!	!	!	!
2.E;\	-di	2.B\	-di	2.e\	-di	2.g#X;\	-di
==	==	==	==	==	==	==	==
*-	*-	*-	*-	*-	*-	*-	*-
!!!system-decoration: [(s1,s2,s3,s4)]
!!!ENC: Kamil Watkowski
!!!END: 2021-08-06
